!!!OTL: TRINKEN SANG ANAKREON
!!!ARE: Europa, Mitteleuropa, Deutschland
!!!SCT: F0557
!!!YEM: Copyright 1995, estate of Helmut Schaffrath.
**kern
*ICvox
*Ivox
*M2/4
*k[f#]
*G:
=1
{8.g
16d
8d
8d
=2
8e
8e
4d}
=3
{8.d
16d
8e
8f#
=4
4g
4r}
=5
{8.a
16b
8.a
16b
=6
8a
8b
4a}
=7
{8a
8a
8b
8cc#
=8
4dd
4r}
=9
{8d
8d
8.b
16g
=10
8g
8e
4e}
=11
{8.d
16d
8e
8f#
=12
4g
4r}
=13
{8d
8d
8.b
16g
=14
8g
8e
4e}
=15
{8.d
16d
8e
8f#
=16
4g
4r}
=17
{4a
4d
=18
4b
4g}
=19
{8.cc
16b
8cc
8ee
=20
4dd}
{8.b
16dd
=21
4cc
8.a
16cc
=22
4b}
{8.g
16b
=23
4a
8.d
16d
=24
4g
4r}
==
!!!AGN: Studenten -, Trink - Lied
!!!ONB: ESAC (Essen Associative Code) Database: FINK
!!!AMT: simple duple
!!!AIN: vox
!!!EED: Helmut Schaffrath
!!!EEV: 1.0
*-
